X:11083
T:Monaghan Jig
M:6/8
L:1/8
R:Jig
K:D maj
|:BGE FGE|BGE FGA|BGE FGE|AFD FGA|BGE FGE|BGE FGA|dcB ABG|FEF AFD:|:
EGB efg|fed edB|EGB EFG|~F3 AFD|EGB efg|fed edB|dcB ABG|FDF AGF:|:
g2
e efe|gfg bge|gag efg|fdf agd|g2e efe|geg bge|d2B ABG|FDF AFD:|:EGB
 eBG|BGE FAF|EGB eBG|~F3AGF|EGB GBe|Beg egb|~d3ABG|FEF AGF:|
